X:1
T:N 3 (die Nr. 3 des 2. teiles)
T:N 3 (die Nr. 3 des 2. teiles)
T:Urheber unbekannt Erstbeleg: 1773 (Datum in der Quelle) Datierung dieser Quelle: 1784 fr\"uhestens (Datum in der Quelle)
C:Urheber unbekannt
C:Erstbeleg: 1773 (Datum in der Quelle)
C:Datierung dieser Quelle: 1784 fr\"uhestens (Datum in der Quelle)
L:1/8
M:2/4
K:F
V:1 treble 
V:1
 a2 a2 | g/a/bag | fefg | ef/e/f/g<f | a2 a2 | g/a/bag | fefg | e{e} f2 x :: c'2 c'2 | b/c'/d'c'b | %10
 =a b2 x | d'>c'd'/c'/b/ | ag a2 | g/a/bag | fefg | e{e} f3 :| %16

